modules/stroke-7/icons/clock.svg

<?xml version="1.0" encoding="utf-8"?>
<!-- Generated by IcoMoon.io -->
<!DOCTYPE svg PUBLIC "-//W3C//DTD SVG 1.1//EN" "http://www.w3.org/Graphics/SVG/1.1/DTD/svg11.dtd">
<svg version="1.1" xmlns="http://www.w3.org/2000/svg" xmlns:xlink="http://www.w3.org/1999/xlink" width="32" height="32" viewBox="0 0 32 32">
<g id="icomoon-ignore">
</g>
<path d="M16 3.205c-7.066 0-12.795 5.729-12.795 12.795s5.729 12.795 12.795 12.795 12.795-5.729 12.795-12.795c0-7.066-5.729-12.795-12.795-12.795zM16 27.729c-6.467 0-11.729-5.261-11.729-11.729s5.261-11.729 11.729-11.729 11.729 5.261 11.729 11.729c0 6.467-5.261 11.729-11.729 11.729z" fill="#000000"></path>
<path d="M16 17.066h-6.398v1.066h7.464v-10.619h-1.066z" fill="#000000"></path>
</svg>

<svg xmlns="http://www.w3.org/2000/svg" width="32" height="32"><path d="M16 3.205C8.934 3.205 3.205 8.934 3.205 16S8.934 28.795 16 28.795 28.795 23.066 28.795 16 23.066 3.205 16 3.205zm0 24.524C9.533 27.729 4.271 22.468 4.271 16S9.532 4.271 16 4.271 27.729 9.532 27.729 16c0 6.467-5.261 11.729-11.729 11.729z"/><path d="M16 17.066H9.602v1.066h7.464V7.513H16z"/></svg>
